X:1
T:[ID 2-56a]
T:[ID 2-56a]
T:Bezeichnung standardisiert: Menuett Men\"uet 15.
T:Urheber unbekannt Datum in der hier transkribierten schriftlichen Quelle: 1767
C:Urheber unbekannt
C:Datum in der hier transkribierten schriftlichen Quelle: 1767
L:1/8
M:3/4
K:D
V:1 treble 
V:1
 d'a a4 | af f4 | fede f2 | e2 dcBA |"^O)" f4 ^g2 | a^gaecA |"^O)" f4 ^g2 | a^gaecA | BdcBA^G | %9
 A6 :: a4 (3bag | f2 f2 f2 | g4 (3agf | e2 e2 e2 | f4 (3gfe | d2 d2 d2 | c4 d2 | e2 dcBA | %18
"^O)" B4 c2 | dcdAFD |"^O)" B4 c2 | dcdAFD | egfedc | d6 :| %24

